X:1
T:James Gibb editions
T:O sonno - Rore
T:#
%%score [ 1 2 3 4 ]
L:1/8
Q:1/4=104
M:2/2
K:F
V:1 treble nm="Soprano" snm="S"
V:2 treble nm="Alto" snm="A"
V:3 treble-8 nm="Tenor" snm="T"
V:4 bass nm="Bass" snm="B"
V:1
"^O sonno""^Cipriano de Rore\n(1515/6-65)""^Giovanni della Casa\n(1503-56)" d8 | (A3 G F4) | %2
w: O|son\- * *|
 E4 z2 ^G2- | G2 !courtesy!^G4 G2 | ^G4 A4 | A2 A2 A4 | A4 D4- |[M:2/2] D2 D4 F2- | F2 E2 E4 | G8 | %10
w: no, o|* del- la|que- ta'hu-|mi- da~om- bro-|sa not\-|* te, pla\-|* ci- do|fi-|
 G4 z4 | z2 c4 A2- | A2 A2 A4 | A4 B2 c2 | d4 d4 | z2 c2 c4 | c4 =B4 | =B2 _B4 A2 | G4 G4 | %19
w: glio;|o de|* mor- ta-|li~E- gri con-|for- to|o- blio|dol- ce|de' ma- li|sì gra-|
 ^F4 z2 A2- | A2 A2 B2 c2- | c2 A4 B2 | c4 (d4- | d2 ^c=B c4) | d4 z4 | A4 B4 | A2 G4 G2 | ^F4 d4 | %28
w: vi on\-|* d'è la vi\-|* ta~a- spra~e|no- io\-||sa:|soc- cor-|ri~al cor ho-|mai, soc-|
 d4 c2 B2- | B2 G2 A4 | z2 F2 G4 | A4 B4 | A2 A2 G4 | A4 z2 c2 | c2 c2 c4 | d4 B4 | B2 A4 G2- | %37
w: cor- ri~al cor|* ho- mai|che lan-|gu'e po-|sa non ha-|ve e|que- ste mem-|bra stanch'|e fra- li|
 G2 G2 =B4 | c4 z2 e2 | e2 e2 e4 | f4 d4- | d4 ^c4 | z2 e2 e2 e2 | e4 f4 | d8 | ^c4 z2 d2 | %46
w: * so- le-|va a|me t'en- vo-|la'o son\-|* no,|a me t'en-|vo- la'o|son-|no, e|
 d4 c2 B2 | A4 A4 | =B2 B2 B2 B2 | =B4 E4 | A8 | A8 ||[M:3/1][Q:1/4=208] =B8 A4 G4 A8 | %53
w: l'a- li tue|bru- ne|sov- ra me dis-|ten- di~e|po-|sa.|Ov' è'l si- len-|
 =B4 B8 E8 ^D4 ||[M:2/2][Q:1/4=104] E4 E4 | z2 G4 G2 | (G3 F/E/ D2) E2 | ^F4 G2 =B2 | A2 ^G2 A4 | %59
w: tio Ov' è'l si-|len- tio|che'l dì|fug\- * * * ge~e'l|lu- me, E'i|lie- vi sog-|
 =B4 z4 | =B4 B2 B2 | =B2 B3 B B2 | =B6 c2 | A4 A2 A2- | A2 A2 =B2 d2 | ^c4 d4 | z4 B4- | B4 A4 | %68
w: ni|che con non|si- cu- re ves-|ti- gia|di se- guir\-|* ti~han per co-|stu- me?|Las\-|* so,|
 z4 d4- | d4 ^c4 | ^c2 d2 e2 f2- | f2 e2 z2 e2 | f2 d2 e3 c | c2 d2 =B2 c2- | c2 A2 B2 G2 | %75
w: las\-|* so|ch'in- van ti chia\-|* mo e|que- st'o- scur' e|ge- li- d'om- bre|* in- van lu-|
 (A6 GF | G2 A2) G4 | z4 f4- | f4 d4- | d4 c4 | B2 A4 G2- | G2 (B3 A A2- | A2 GF G4) | A4 z4 | %84
w: sin\- * *|* * go:|O|* piu\-|* me|d'a- sprez- za|* col\- * *||me,|
 f6 d2- |[Q:1/4=103] d2[Q:1/4=102] c2[Q:1/4=100] B3[Q:1/4=99] (A |[Q:1/4=97] G4)[Q:1/4=95] (f4- | %87
w: o not\-|* ti~a- cerb' e|* du\-|
[Q:1/4=93] f3[Q:1/4=92] e[Q:1/4=91] d4) |[Q:1/4=90] ^c8 |] %89
w: |re.|
V:2
 A8 | (F3 E D4) | ^C4 z2 E2- | E2 E4 E2 | E4 ^C4 | ^C2 C2 C4 | D4 F4 |[M:2/2] F6 C2- | C2 C2 C4 | %9
w: O|son\- * *|no, o|* del- la|que- ta'hu-|mi- da~om- bro-|sa not-|te pla\-|* ci- do|
 D8 | E8 | z4 A4 | F2 F2 F4 | E4 G2 A2 | B4 B4 | z2 G2 G4 | G4 G2 G2 | G4 F4 | D4 _E4 | D4 z2 E2- | %20
w: fi-|glio;|o|de mor- ta-|li~E- gri con-|for- to|o- blio|dol- ce de'|ma- li|sì gra-|vi on\-|
 E2 F2 G2 A2- | A2 c4 B2 | A2 (A3 G/F/ G2) | A8- | A4 z4 | F4 F4 | F2 D4 C2 | D4 B4 | B4 A2 G2- | %29
w: * d'è la vi\-|* ta~a- spra~e|no- io\- * * *|sa:||soc- cor-|ri~al cor ho-|mai, soc-|cor- ri~al cor|
 G2 G2 ^F4 | z2 A2 D4 | E4 F4 | F2 E2 D4 | E4 z2 F2 | F2 F2 E4 | F4 G4 | G2 F4 E2- | E2 E2 G4 | %38
w: * ho- mai|che lan-|gu'e po-|sa non ha-|ve e|que- ste mem-|bra stanch'|e fra- li|* so- le-|
 G4 z4 | A4 A2 A2 | A4 B2 (A2- | AG/F/ G2) A4 | z4 A4 | A2 A2 A4 | B2 (A2- AG/F/ G2) | A4 z2 F2 | %46
w: va|a me t'en-|vo- la'o son\-|* * * * no,|a|me t'en- vo-|la'o son\- * * * *|no, e|
 B4 A2 G2 | F4 E4 | ^G2 G2 G2 G2 | ^G4 A4 | ^F8 | ^F8 ||[M:3/1] z8 z8 E8 | G4 ^F4 G8 F8 || %54
w: l'a- li tue|bru- ne|sov- ra me dis-|ten- di~e|po-|sa.|Ov'|è'l si- len- tio|
[M:2/2] z2 G4 G2 | (G3 F/E/ D2) (E2- | ED ED/C/ =B,2) E2 | D4 E4 | z4 E4 | G2 ^F2 G4 | %60
w: che'l dì|fug\- * * * ge|* * * * * * e'l|lu- me,|E'i|lie- vi sog-|
 ^F2 F2 F2 F2 | ^F2 F3 F F2 | G6 G2 | F4 F2 E2- | E2 E2 G2 F2 | A4 A4- | A4 z4 | F8 | E4 A4- | %69
w: ni che con non|si- cu- re ves-|ti- gia|di se- guir\-|* ti~han per co-|stu- me?||Las-|s, las\-|
 A4 A4 | A2 =B4 c2 | c4 c2 z2 | A2 B2 G2 A2- | AF F2 G2 E2 | F4 D2 E2 | C2 (F4 ED | E4) E4 | %77
w: * so|ch'in- van ti|chia- mo|e que- st'o- scur'|* e ge- li- d'om-|bre in- van|lu- sin\- * *|* go:|
 z4 c4- | c4 A4- | A4 A4 | F4 E4- | E2 D2 (F4- | F2 D2) D4 | z8 | c6 A2- | A4 F4 | B4 c4 | B8 | %88
w: O|* pu\-|* me|d'a- sprez\-|* za col\-|* * me,||o not\-|* ti~a-|cerb' e|du-|
 A8 |] %89
w: re.|
V:3
 f6 d2- | d4 A4- | A4 z2 =B2- | B2 !courtesy!=B4 B2 | =B4 e4 | e2 e2 e4 | A4 B4- | %7
w: O son\-|* no,|* o|* del- la|que- ta'hu-|mi- da~om- bro-|sa not\-|
[M:2/2][K:treble-8] B2 B4 A2- | A2 G2 G4 | =B8 | c8 | z4 f4 | d2 d2 d4 | ^c4 d2 f2 | f4 f4 | %15
w: * te, pla\-|* ci- do|fi-|glio;|o|de mor- ta-|li~E- gri con-|for- to|
 z2 e2 e4 | _e4 d4 | d2 d4 c2 | =B4 c4 | A4 z2 c2- | c2 c2 d2 e2- | e4 f4 | e4 d4 | e8 | d4 z4 | %25
w: o- blio|dol- ce|de' ma- li|sì gra-|vi on\-|* d'è la vi\-|* ta~a-|spra~e no-|io-|sa:|
 c4 d4 | c2 B4 G2 | A4 f4 | f4 f2 d2- | d2 c2 A4 | z2 A2 B4 | A4 d4 | d2 c2 B4 | A4 z2 A2 | %34
w: soc- cor-|ri~al cor ho-|mai, soc-|cor- ri~al cor|* ho- mai|che lan-|gu'e po-|sa non ha-|ve e|
 A2 A2 G4 | B4 B4 | _e2 c4 c2- | c2 c2 d4 | e4 z4 | ^c4 c2 c2 | d4 f4 | d4 e4 | z4 ^c4 | %43
w: que- ste mem-|bra stanch'|e fra- li|* so- le-|va|a me t'en-|vo- la'o|son- no,|a|
 ^c2 c2 d4 | f4 d4 | e4 z2 d2 | f4 f2 d2 | d4 ^c4 | e2 e2 e2 e2 | e4 ^c4 | d8 | d8 || %52
w: me t'en- vo-|la'o son-|no, e|l'a- li tue|bru- ne|sov- ra me dis-|ten- di~e|po-|sa.|
[M:3/1][K:treble-8] =B8 c4 B4 c8 | =B12 z4 z4 z4 ||[M:2/2] =B6 c2 | (e3 d/c/ =B2) c2 | z4 G4 | %57
w: Ov' è'l si- len-|tio|che'l dì|fug\- * * * ge|e'l|
 =B4 B2 B2 | c2 =B2 c4 | =B4 z4 | d4 d2 d2 | d2 d3 d d2 | e6 e2 | c4 d2 ^c2- | c2 ^c2 d2 d2 | %65
w: lu- me, E'i|lie- vi sog-|ni|che con non|si- cu- re ves-|ti- gia|di se- guir\-|* ti~han per co-|
 e4 ^f4 | z8 | d8 | A4 f4- | f4 e4 | e2 g4 a2 | g4 g2 a2 | f2 g3 e e2 | f2 d2 e4 | c2 d2 B2 c2- | %75
w: stu- me?||Las-|so, las\-|* so|ch'in- van ti|chia- mo~e que-|st'o- scur' e ge-|li- de om-|br'in- van lu- sin\-|
 cB AG F4 | c8 | z4 a4- | a4 f4- | f4 e4 | d4 c4- | c2 B2 c4 | d4 z4 | z8 | a6 f2- | f2 e2 d4- | %86
w: |go:|O|* piu\-|* me|d'a- sprez\-|* za col-|me,||o not\-|* ti~a- cerb'|
 d4 a4 | f8 | e8 |] %89
w: * e|du-|re.|
V:4
 D,8 | D,8 | A,,4 z2 E,2- | E,2 E,4 E,2 | E,4 A,,4 | A,,2 A,,2 A,,4 | D,4 B,,4- | %7
w: O|son-|no, o|* del- la|que- ta'hu-|mi- da~om- bro-|sa not\-|
[M:2/2] B,,2 B,,4 F,2- | F,2 C,2 C,4 | G,8 | C,4 z4 | A,6 D,2- | D,2 D,2 D,4 | A,4 G,2 F,2 | %14
w: * te, pla\-|* ci- do|fi-|glio;|o de|* mor- ta-|li~E- gri con-|
 B,4 B,4 | z2 C2 C4 | C4 G,4 | G,2 B,4 F,2 | G,4 C,4 | D,4 z2 A,2- | A,2 F,2 B,2 A,2- | A,4 D4 | %22
w: for- to|o- blio|dol- ce|de' ma- li|sì gra-|vi on\-|* d'è la vi\-|* ta~a-|
 C4 B,4 | A,8 | D,4 z4 | F,4 B,,4 | F,2 G,4 _E,2 | D,4 B,,4 | B,4 F,2 G,2- | G,2 _E,2 D,4- | %30
w: spra~e no-|io-|sa:|soc- cor-|ri~al cor ho-|mai, soc-|cor- ri~al cor|* ho- mai|
 D,4 z4 | z8 | z8 | z4 z2 F,2 | F,2 F,2 C,4 | B,,4 _E,4 | _E,2 F,4 C,2- | C,2 C,2 G,4 | C4 z2 A,2 | %39
w: |||e|que- ste mem-|bra stanch'|e fra- li|* so- le-|va a|
 A,2 A,2 A,4 | D8 | B,4 A,4 | z2 A,2 A,2 A,2 | A,4 D4- | D4 B,4 | A,4 z2 B,2 | B,4 F,2 G,2 | %47
w: me t'en- vo-|la'o|son- no,|a me t'en-|vo- la'o|* son-|no, e|l'a- li tue|
 D,4 A,,4 | E,2 E,2 E,2 E,2 | E,4 A,4 | D,8 | D,8 ||[M:3/1] z8 z8 A,8 | E,4 ^D,4 E,8 =B,,8 || %54
w: bru- ne|sov- ra me dis-|ten- di~e|po-|sa.|Ov'|è'l si- len- tio|
[M:2/2] E,4 E,2 (C,2- | C,D,E,F, G,2) C,2 | z4 z2 C,2 | =B,,4 E,4 | z4 A,4 | E,2 ^D,2 E,4 | %60
w: che'l dì fug\-|* * * * * ge|e'l|lu- me,|E'i|lie- vi sog-|
 =B,,2 =B,2 B,2 B,2 | =B,2 B,3 B, B,2 | E,6 C,2 | F,4 D,2 A,2- | A,2 A,2 G,2 B,2 | A,4 D4- | %66
w: ni che con non|si- cu- re ves-|ti- gia|di se- guir\-|* ti~han per co-|stu- me?|
 D4 z4 | z8 | z4 D,4- | D,4 A,,4 | A,2 G,4 F,2 | C6 C2 | D2 B,2 C3 A, | A,2 B,2 G,2 A,2- | %74
w: ||Las\-|* so|ch'in- van ti|chia- mo~e|que- st'o- scur' e|ge- li- de om\-|
 A,2 F,2 G,2 E,2 | (F,3 E, D,4) | C,8 | z8 | F,8 | A,8 | D,4 E,4 | G,4 A,4 | B,8 | A,4 z4 | F,8 | %85
w: * br'in- van lu-|sin\- * *|go:||O|piu-|me d'a-|sprez- za|col-|me,|o|
 A,4 D,4 | G,4 A,4 | D8 | A,8 |] %89
w: not- ti~a-|cerb' e|du-|re.|

